src/img/slider/left-arrow-orig.svg

<svg width="6" height="19" viewBox="0 0 6 19" fill="none" xmlns="http://www.w3.org/2000/svg">
<path d="M5.828 0.265007C5.605 -0.119993 5.243 -0.119993 5.02 0.265007L0.170001 8.64001C-0.0449996 9.01101 -0.0529995 9.60501 0.147 9.99301C0.137 10.253 0.191 10.517 0.305 10.715L4.937 18.715C5.15 19.083 5.496 19.083 5.709 18.715C5.922 18.347 5.922 17.749 5.709 17.381L1.217 9.62301L5.828 1.66001C6.051 1.27601 6.051 0.650007 5.828 0.265007Z" fill="white"/>
</svg>

<?xml version="1.0" encoding="UTF-8" standalone="no"?>
<svg width="6" xmlns="http://www.w3.org/2000/svg" fill="none" viewBox="0 0 6 19" height="19">
 <path d="m5.828 0.26501c-0.223-0.385-0.585-0.385-0.808 0l-4.85 8.375c-0.215 0.371-0.223 0.965-0.023 1.353-0.01 0.26 0.044 0.524 0.158 0.722l4.632 8c0.213 0.368 0.559 0.368 0.772 0s0.213-0.966 0-1.334l-4.492-7.758 4.611-7.963c0.223-0.384 0.223-1.01 0-1.395z" fill="#fff"/>
</svg>
